X:1
T:Serres chaudes
T:Serre chaud
T:1. Serre chaude
T:Ernest Chausson
T:Maurice Maeterlinck
T:Serres chaudes
T:Creative Commons copyright waiver (CC0 1.0 Universal) 
T:Creative Commons copyright waiver (CC0 1.0 Universal) 
T:Creative Commons copyright waiver (CC0 1.0 Universal) 
T:Creative Commons copyright waiver (CC0 1.0 Universal) 
C:Ernest Chausson
Z:Maurice Maeterlinck
Z:Creative Commons copyright waiver (CC0 1.0 Universal)
L:1/8
M:3/4
K:D
V:1 treble nm="Voice" snm="Vo."
V:1
 z6 | z2 z2 F2 | ^G6 | EE E2 EE | D4- D z | z2 z B2 B | c3 G (3GGG | F4 F2 | z6 | z B BB BB | %10
w: |O|serre|au mi- lieu des fo-|rêts! *|Et vos|por- tes à ja- mais|clo- ses!||Et tout ce qu'il y|
 =c3 _A (3AG=F | =F4 F2 | z2 z ^F Fd | _e6- | e2 _B2 z2 | z =B ^GG FD | D4 z2 | z6 | z6 | z6 | %20
w: a sous vo- tre cou-|po- le!|Et dans mon|â-|* me|en vos a- na- lo-|dies!||||
 z F/F/ F2- F/F/F/F/ | F/F/F/F/ ^G2 z2 | z z/ A/ A2 (3AAA | A2 (3AAA G2 | z/ =c/c/c/ cc/c/ B2 | %25
w: Les pen- sées * d'u- ne prin-|ces- se qui a faim.|L'en- nui d'un ma- te-|lot dans le dé- sert,|U- ne mu- si- que de cui-|
 (3BBB ^cc (3cce | e6- | e2 ^G2 z2 | z A _B3 A | A>=F ED DD | z6 | z2 z2 _AA | _BB/B/ _c2 (3=FFB | %33
w: vre aux fe- nê- tres des in- cu-|ra-|* bles.|Al- lez aux|an- gles les plus tiè- des!||On di-|rait u- ne femme é- va- nou-|
 _B2- B/G/(3G/G/G/ E2 | z2 z F/F/ F/F/F/F/ | GG/G/ (3GA_B BB | z2 z _d d2 | (3=d=d=d =dd =d2- | %38
w: ie * un jour de moi- sson,|Il y a des pos- til-|lons dans la cour de l'hos- pi- ce.|Au loin|passÈ un chas0 seur d'é- lan|
 (3=ddd (3dd=f f2- | f2 z2 z2 | z2 z _A AA | _B>B BB _d2- | d2 =c z z2 | z2 =d4- | d2 ^G>G (3GGG | %45
w: * de- ve- nu in- fie- mier||Ex- a- mi-|nez au- clair de lu-|* ne.|Oh!|* rien n'y- est à sa|
 B4 B2 | z6 | (3z GG (3GGG BG- | G/G/G/G/ GG z2 | (3z AA (3AAA A2 | (3B=cd d3 =F | z2 =F2 FF | %52
w: pla- ce.||On di- rait u- ne fol- le|* de- vant les ju- ges,|Un na- vi- re de- guerre|à plei- new voi- les|Sur un ca-|
 _E4 z2 | GG GG _A_B/=c/ | =c2 z2 _d2 | _ee/e/ e2 z =e | g6- | g2 =cG GG | z2 _BB =B/B/B/B/ | %59
w: nal|Des oi- seaux de nuit sur des|lis Un|glas vers mi- di (Là-|bàs|* sous ces clo- ches!)|Une é- ta pe de ma-|
 _BB z B BB | A2 z =B/B/ B>B | d3 d (3ddd | a4 z2 | z6 | z =c c4- | c6 | z2 z2 _e2 | =e6- | e6 | %69
w: la- des dans la prai-|rie Une o- deur d'é-|ther un jour de so-|leil||Mon Die!||Mon|Dieu!||
[M:4/4] z2 f2 f2 f2 | f4 e2 d2 | c4- c d2 e | f4- f f2 f | d6 =cc | B6 F2 | F4 z4 | z8 | z8 | z8 |] %79
w: Quand au- rons-|nous * la|pluie * Et la|neige * Et le|vent dans la|ser- *|re!||||

